Sources/FrostedUI/Resources/Icons.xcassets/minimize20.imageset/minimize-20.svg

<svg width="20" height="20" viewBox="0 0 20 20" fill="none" xmlns="http://www.w3.org/2000/svg" data-fui-icon="true">
  <path
    d="M17.5226 11.257C17.9366 11.2571 18.2724 11.593 18.2726 12.007C18.2725 12.4211 17.9367 12.7568 17.5226 12.757H13.8185L18.5304 17.4698C18.823 17.7627 18.823 18.2375 18.5304 18.5304C18.2375 18.823 17.7627 18.823 17.4698 18.5304L12.7579 13.8175L12.757 17.5226C12.7569 17.9368 12.4212 18.2726 12.007 18.2726C11.5929 18.2725 11.257 17.9367 11.257 17.5226L11.2579 12.007C11.2581 11.5929 11.5938 11.257 12.0079 11.257H17.5226ZM1.46985 1.46985C1.76276 1.1772 2.23758 1.17704 2.5304 1.46985L7.24231 6.18176L7.24329 2.47766C7.24329 2.06345 7.57907 1.72766 7.99329 1.72766C8.40729 1.72791 8.74329 2.0636 8.74329 2.47766L8.74231 7.99231C8.74231 8.40651 8.40651 8.74229 7.99231 8.74231H2.47766C2.06345 8.74231 1.72766 8.40652 1.72766 7.99231C1.72794 7.57834 2.06363 7.24329 2.47766 7.24329H6.18176L1.46985 2.5304C1.17703 2.23758 1.17718 1.76276 1.46985 1.46985Z"
    fill="currentColor"
  />
</svg>

<svg xmlns="http://www.w3.org/2000/svg" width="20" height="20" fill="none" data-fui-icon="true" viewBox="0 0 20 20"><path fill="currentColor" d="M17.523 11.257a.75.75 0 0 1 0 1.5h-3.704l4.711 4.713a.75.75 0 0 1-1.06 1.06l-4.712-4.712-.001 3.705a.75.75 0 0 1-1.5 0v-5.516a.75.75 0 0 1 .75-.75zM1.47 1.47a.75.75 0 0 1 1.06 0l4.712 4.712.001-3.704a.75.75 0 1 1 1.5 0v5.514a.75.75 0 0 1-.75.75H2.477a.75.75 0 0 1 0-1.499h3.704L1.47 2.53a.75.75 0 0 1 0-1.06"/></svg>
